assets/img/logo-blue.svg

<svg width="435" height="105" xmlns="http://www.w3.org/2000/svg"><g fill="none" fill-rule="evenodd"><path d="M43.286 10.554l13.691 14.253c1.922 2.002 3.481 5.899 3.481 8.704v11.606L43.29 27.371a4.824 4.824 0 0 0-6.988 0L19.332 44.93l.004-11.418c0-2.805 1.55-6.711 3.464-8.722l13.537-14.218c1.913-2.011 5.026-2.02 6.949-.018zm22.667 40.248V30.961c0-2.805-1.563-6.694-3.494-8.691L43.299 2.456a4.81 4.81 0 0 0-6.979.013L17.322 22.257c-1.922 2.002-3.48 5.9-3.48 8.705v19.647L3.494 61.306C1.563 63.299 0 67.193 0 69.998l.004 19.23c0 2.806 2.23 5.079 4.978 5.079l18.467.004c2.748 0 6.541-1.615 8.472-3.612l7.879-8.151 7.884 8.151c1.931 1.997 5.719 3.612 8.467 3.612l18.472-.004c2.748 0 4.978-2.273 4.978-5.079l.004-19.23c0-2.805-1.567-6.698-3.494-8.691L65.953 50.802zm-46.621 2.537v-.373l16.975-17.55a4.829 4.829 0 0 1 6.992 0l17.15 17.738L39.8 74.505 19.332 53.339zm-8.819 35.227c-2.748.013-4.969-2.252-4.956-5.058l.048-11.294c.014-2.805 1.589-6.694 3.521-8.691l6.137-6.348 20.653 21.352-6.142 6.347c-1.931 1.997-5.724 3.626-8.472 3.64l-10.789.052zm33.176-10.039l20.648-21.352 6.141 6.348c1.931 1.997 3.503 5.887 3.516 8.691l.048 11.294c.014 2.806-2.203 5.07-4.951 5.058l-10.794-.053c-2.748-.014-6.536-1.643-8.467-3.64l-6.141-6.346zm73.056-19.432V39.544h9.389c2.041 0 3.06-.943 3.06-2.827v-5.851c0-1.884-1.089-2.827-3.271-2.827h-9.178V17.271c0-2.23-.843-3.345-2.533-3.345h-8.02c-1.755 0-2.708 1.079-2.849 3.239-.21 4.601-.738 41.512-.738 41.512 0 4.53.229 8.051.686 10.558.46 2.511 1.426 4.64 2.901 6.382 1.76 2.16 4.205 3.656 7.335 4.495 3.13.834 7.615 1.256 13.454 1.256 1.966 0 3.059-.909 3.27-2.722.141-2.09.211-4.078.211-5.957 0-1.742-.847-2.687-2.533-2.827-5.066-.347-8.16-1.216-9.284-2.611-1.268-1.465-1.9-4.183-1.9-8.156zm53.092-4.705c0 6.483-.808 10.754-2.428 12.809-1.615 2.055-4.499 3.086-8.652 3.086-4.078 0-6.874-1.063-8.388-3.191-1.51-2.124-2.27-6.466-2.27-13.015 0-6.137.847-10.285 2.533-12.444 1.69-2.16 4.503-3.24 8.441-3.24 4.293 0 7.16 1.045 8.6 3.135 1.444 2.093 2.164 6.377 2.164 12.86zm14.139-.522c0-5.785-.474-10.491-1.427-14.117-.948-3.621-2.55-6.396-4.798-8.31-2.252-1.918-4.767-3.208-7.546-3.871-2.778-.663-6.417-.992-10.921-.992-4.008 0-7.436.382-10.285 1.15-2.849.768-5.487 2.124-7.914 4.078-2.428 1.953-4.254 4.793-5.487 8.52-1.229 3.731-1.844 8.349-1.844 13.854 0 10.667 1.932 17.949 5.799 21.855 3.872 3.902 10.202 5.855 18.994 5.855 9.074 0 15.579-1.988 19.521-5.961 3.936-3.972 5.908-11.329 5.908-22.061zm20.249 5.227V39.544h9.389c2.041 0 3.06-.943 3.06-2.827v-5.851c0-1.884-1.089-2.827-3.271-2.827h-9.179V17.271c0-2.23-.848-3.345-2.533-3.345h-8.02c-1.76 0-2.708 1.079-2.849 3.239-.211 4.601-.737 41.512-.737 41.512 0 4.53.228 8.051.685 10.558.457 2.511 1.422 4.64 2.901 6.382 1.76 2.16 4.201 3.656 7.335 4.495 3.13.834 7.611 1.256 13.45 1.256 1.971 0 3.06-.909 3.27-2.722.14-2.09.21-4.078.21-5.957 0-1.742-.843-2.687-2.528-2.827-5.065-.347-8.16-1.216-9.288-2.611-1.264-1.465-1.895-4.183-1.895-8.156zm51.256-.522v6.273c0 1.742-.105 2.928-.316 3.556-.21.768-.741 1.325-1.584 1.672-1.9.839-4.75 1.256-8.547 1.256-3.095 0-5.24-.575-6.435-1.726-1.194-1.149-1.796-2.84-1.796-5.069 0-2.371.672-3.978 2.006-4.812 1.41-1.045 4.434-1.567 9.074-1.567 2.252 0 4.785.136 7.598.417zm14.034 12.967V44.772c0-6.834-1.268-11.47-3.801-13.905-2.955-2.862-8.863-4.289-17.725-4.289-6.963 0-13.012.804-18.147 2.405-1.55.487-2.321 1.532-2.321 3.135 0 1.255.351 3.278 1.053 6.066.355 1.325 1.129 1.988 2.322 1.988.281 0 1.796-.211 4.539-.628 3.727-.628 7.243-.943 10.548-.943 5.136 0 8.125 1.014 8.973 3.033.351.975.526 2.581.526 4.811v2.612c-2.462-.277-5.592-.418-9.394-.418-7.945 0-13.572 1.115-16.878 3.346-3.941 2.581-5.908 6.865-5.908 12.861 0 5.298 1.422 9.464 4.271 12.497 2.848 3.028 8.107 4.547 15.775 4.547 3.586 0 7.471-.298 11.659-.891 4.183-.593 7.365-1.269 9.547-2.037 1.476-.487 2.708-1.29 3.692-2.405.843-1.045 1.269-2.717 1.269-5.017zm20.074-10.666v-44.01c0-1.045-.176-1.796-.527-2.248-.351-.452-1.021-.68-2.006-.68h-8.863c-1.83 0-2.743.979-2.743 2.928v45.787c0 5.646.772 9.688 2.322 12.129 1.405 2.159 3.394 3.744 5.962 4.758 2.568 1.01 6.277 1.515 11.132 1.515 2.041 0 3.235-.804 3.587-2.405.279-1.392.42-3.239.42-5.54 0-1.602-.771-2.511-2.321-2.722-3.235-.553-5.237-1.602-6.015-3.134-.632-1.327-.948-3.451-.948-6.378z" fill="#0667A4"/><path d="M350.13 33.355c-1.269-2.476-3.235-4.288-5.908-5.438-2.673-1.15-6.119-1.725-10.342-1.725-7.809 0-13.665 2.181-17.567 6.535-3.902 4.359-5.856 11.348-5.856 20.965 0 9.618 1.797 16.558 5.383 20.807 3.586 4.254 9.67 6.378 18.252 6.378 6.119 0 11.465-.834 16.039-2.511 1.124-.347 1.686-.939 1.686-1.773 0-.698-.246-1.536-.737-2.511-.211-.558-.632-.838-1.265-.838-.495 0-1.443.21-2.849.627-3.591 1.115-7.703 1.673-12.349 1.673-6.188 0-10.723-1.427-13.607-4.284-2.883-2.857-4.363-8.262-4.434-16.206h33.766c1.054 0 1.756-.176 2.111-.522.491-.492.737-1.537.737-3.139 0-4.254-.193-7.704-.579-10.351-.391-2.652-1.216-5.211-2.481-7.687zm-3.06 16.676h-30.39c.141-5.991 1.428-10.574 3.85-13.748 2.428-3.169 6.703-4.758 12.822-4.758 5.487 0 9.161 1.308 11.027 3.92 1.861 2.616 2.796 6.536 2.796 11.764.001 1.326-.034 2.265-.105 2.822zm36.904-22.303c-.918-.211-2.322-.312-4.223-.312-3.517 0-7.155.557-10.917 1.672-3.767 1.115-6.281 2.266-7.546 3.45-1.479 1.462-2.217 3.415-2.217 5.855v40.464c0 1.325.633 1.988 1.901 1.988h2.217c1.264 0 1.896-.663 1.896-1.988V40.483c0-1.462.176-2.511.527-3.139.355-.764.987-1.356 1.9-1.773 2.954-1.677 6.931-2.511 11.922-2.511.422 0 1.146.035 2.164.105 1.019.065 1.603.101 1.743.101.772 0 1.264-.417 1.475-1.251.211-.768.316-1.777.316-3.033.001-.696-.386-1.113-1.158-1.254zm45.563 5.592c-3.06-3.938-8.103-5.903-15.14-5.903-7.879 0-14.49 1.286-19.836 3.867-1.616.768-2.674 1.672-3.165 2.717-.352.908-.526 2.405-.526 4.499v64.614c0 1.256.597 1.884 1.795 1.884h2.322c1.264 0 1.896-.628 1.896-1.884V79.692c3.024 1.466 7.213 2.198 12.555 2.198 5.908 0 10.57-.75 13.981-2.247 3.414-1.501 6.048-4.341 7.914-8.524 1.865-4.184 2.796-10.069 2.796-17.668 0-9.482-1.532-16.194-4.592-20.131zm-5.219 38.427c-2.533 3.139-7.528 4.705-14.986 4.705-4.288 0-7.805-.558-10.548-1.672-1.269-.558-1.901-1.849-1.901-3.867V40.695c0-1.813.141-2.998.422-3.556.352-.769 1.093-1.361 2.217-1.778 4.008-1.602 8.651-2.405 13.928-2.405 5.839 0 9.741 1.62 11.712 4.864 1.971 3.239 2.954 8.66 2.954 16.259-.001 8.642-1.269 14.533-3.798 17.668z" fill="#1A293F"/></g></svg>

<?xml version="1.0" encoding="UTF-8"?>
<svg width="435px" height="105px" viewBox="0 0 435 105" version="1.1" xmlns="http://www.w3.org/2000/svg" xmlns:xlink="http://www.w3.org/1999/xlink">
    <!-- Generator: Sketch 52.6 (67491) - http://www.bohemiancoding.com/sketch -->
    <title>Group 2</title>
    <desc>Created with Sketch.</desc>
    <g id="Page-1" stroke="none" stroke-width="1" fill="none" fill-rule="evenodd">
        <g id="Logos" transform="translate(-698.000000, -395.000000)">
            <g id="logoTotalerp-branco" transform="translate(176.000000, 254.000000)">
                <g id="Group-2" transform="translate(522.000000, 141.000000)">
                    <path d="M43.286,10.554 L56.977,24.807 C58.899,26.809 60.458,30.706 60.458,33.511 L60.458,45.117 L43.29,27.371 C41.363,25.374 38.233,25.374 36.302,27.371 L19.332,44.93 L19.336,33.512 C19.336,30.707 20.886,26.801 22.8,24.79 L36.337,10.572 C38.25,8.561 41.363,8.552 43.286,10.554 Z M65.953,50.802 L65.953,30.961 C65.953,28.156 64.39,24.267 62.459,22.27 L43.299,2.456 C41.367,0.459 38.242,0.468 36.32,2.469 L17.322,22.257 C15.4,24.259 13.842,28.157 13.842,30.962 L13.842,50.609 L3.494,61.306 C1.563,63.299 -2.13162821e-13,67.193 -2.13162821e-13,69.998 L0.004,89.228 C0.004,92.034 2.234,94.307 4.982,94.307 L23.449,94.311 C26.197,94.311 29.99,92.696 31.921,90.699 L39.8,82.548 L47.684,90.699 C49.615,92.696 53.403,94.311 56.151,94.311 L74.623,94.307 C77.371,94.307 79.601,92.034 79.601,89.228 L79.605,69.998 C79.605,67.193 78.038,63.3 76.111,61.307 L65.953,50.802 Z M19.332,53.339 L19.332,52.966 L36.307,35.416 C38.238,33.419 41.368,33.419 43.299,35.416 L60.449,53.154 L39.8,74.505 L19.332,53.339 Z M10.513,88.566 C7.765,88.579 5.544,86.314 5.557,83.508 L5.605,72.214 C5.619,69.409 7.194,65.52 9.126,63.523 L15.263,57.175 L35.916,78.527 L29.774,84.874 C27.843,86.871 24.05,88.5 21.302,88.514 L10.513,88.566 Z M43.689,78.527 L64.337,57.175 L70.478,63.523 C72.409,65.52 73.981,69.41 73.994,72.214 L74.042,83.508 C74.056,86.314 71.839,88.578 69.091,88.566 L58.297,88.513 C55.549,88.499 51.761,86.87 49.83,84.873 L43.689,78.527 Z" id="Shape" fill="#0667A4"></path>
                    <path d="M116.745,59.095 L116.745,39.544 L126.134,39.544 C128.175,39.544 129.194,38.601 129.194,36.717 L129.194,30.866 C129.194,28.982 128.105,28.039 125.923,28.039 L116.745,28.039 L116.745,17.271 C116.745,15.041 115.902,13.926 114.212,13.926 L106.192,13.926 C104.437,13.926 103.484,15.005 103.343,17.165 C103.133,21.766 102.605,58.677 102.605,58.677 C102.605,63.207 102.834,66.728 103.291,69.235 C103.751,71.746 104.717,73.875 106.192,75.617 C107.952,77.777 110.397,79.273 113.527,80.112 C116.657,80.946 121.142,81.368 126.981,81.368 C128.947,81.368 130.04,80.459 130.251,78.646 C130.392,76.556 130.462,74.568 130.462,72.689 C130.462,70.947 129.615,70.002 127.929,69.862 C122.863,69.515 119.769,68.646 118.645,67.251 C117.377,65.786 116.745,63.068 116.745,59.095 Z M169.837,54.39 C169.837,60.873 169.029,65.144 167.409,67.199 C165.794,69.254 162.91,70.285 158.757,70.285 C154.679,70.285 151.883,69.222 150.369,67.094 C148.859,64.97 148.099,60.628 148.099,54.079 C148.099,47.942 148.946,43.794 150.632,41.635 C152.322,39.475 155.135,38.395 159.073,38.395 C163.366,38.395 166.233,39.44 167.673,41.53 C169.117,43.623 169.837,47.907 169.837,54.39 Z M183.976,53.868 C183.976,48.083 183.502,43.377 182.549,39.751 C181.601,36.13 179.999,33.355 177.751,31.441 C175.499,29.523 172.984,28.233 170.205,27.57 C167.427,26.907 163.788,26.578 159.284,26.578 C155.276,26.578 151.848,26.96 148.999,27.728 C146.15,28.496 143.512,29.852 141.085,31.806 C138.657,33.759 136.831,36.599 135.598,40.326 C134.369,44.057 133.754,48.675 133.754,54.18 C133.754,64.847 135.686,72.129 139.553,76.035 C143.425,79.937 149.755,81.89 158.547,81.89 C167.621,81.89 174.126,79.902 178.068,75.929 C182.004,71.957 183.976,64.6 183.976,53.868 Z M204.225,59.095 L204.225,39.544 L213.614,39.544 C215.655,39.544 216.674,38.601 216.674,36.717 L216.674,30.866 C216.674,28.982 215.585,28.039 213.403,28.039 L204.224,28.039 L204.224,17.271 C204.224,15.041 203.376,13.926 201.691,13.926 L193.671,13.926 C191.911,13.926 190.963,15.005 190.822,17.165 C190.611,21.766 190.085,58.677 190.085,58.677 C190.085,63.207 190.313,66.728 190.77,69.235 C191.227,71.746 192.192,73.875 193.671,75.617 C195.431,77.777 197.872,79.273 201.006,80.112 C204.136,80.946 208.617,81.368 214.456,81.368 C216.427,81.368 217.516,80.459 217.726,78.646 C217.866,76.556 217.936,74.568 217.936,72.689 C217.936,70.947 217.093,70.002 215.408,69.862 C210.343,69.515 207.248,68.646 206.12,67.251 C204.856,65.786 204.225,63.068 204.225,59.095 Z M255.481,58.573 L255.481,64.846 C255.481,66.588 255.376,67.774 255.165,68.402 C254.955,69.17 254.424,69.727 253.581,70.074 C251.681,70.913 248.831,71.33 245.034,71.33 C241.939,71.33 239.794,70.755 238.599,69.604 C237.405,68.455 236.803,66.764 236.803,64.535 C236.803,62.164 237.475,60.557 238.809,59.723 C240.219,58.678 243.243,58.156 247.883,58.156 C250.135,58.156 252.668,58.292 255.481,58.573 Z M269.515,71.54 L269.515,44.772 C269.515,37.938 268.247,33.302 265.714,30.867 C262.759,28.005 256.851,26.578 247.989,26.578 C241.026,26.578 234.977,27.382 229.842,28.983 C228.292,29.47 227.521,30.515 227.521,32.118 C227.521,33.373 227.872,35.396 228.574,38.184 C228.929,39.509 229.703,40.172 230.896,40.172 C231.177,40.172 232.692,39.961 235.435,39.544 C239.162,38.916 242.678,38.601 245.983,38.601 C251.119,38.601 254.108,39.615 254.956,41.634 C255.307,42.609 255.482,44.215 255.482,46.445 L255.482,49.057 C253.02,48.78 249.89,48.639 246.088,48.639 C238.143,48.639 232.516,49.754 229.21,51.985 C225.269,54.566 223.302,58.85 223.302,64.846 C223.302,70.144 224.724,74.31 227.573,77.343 C230.421,80.371 235.68,81.89 243.348,81.89 C246.934,81.89 250.819,81.592 255.007,80.999 C259.19,80.406 262.372,79.73 264.554,78.962 C266.03,78.475 267.262,77.672 268.246,76.557 C269.089,75.512 269.515,73.84 269.515,71.54 Z M289.589,60.874 L289.589,16.864 C289.589,15.819 289.413,15.068 289.062,14.616 C288.711,14.164 288.041,13.936 287.056,13.936 L278.193,13.936 C276.363,13.936 275.45,14.915 275.45,16.864 L275.45,62.651 C275.45,68.297 276.222,72.339 277.772,74.78 C279.177,76.939 281.166,78.524 283.734,79.538 C286.302,80.548 290.011,81.053 294.866,81.053 C296.907,81.053 298.101,80.249 298.453,78.648 C298.732,77.256 298.873,75.409 298.873,73.108 C298.873,71.506 298.102,70.597 296.552,70.386 C293.317,69.833 291.315,68.784 290.537,67.252 C289.905,65.925 289.589,63.801 289.589,60.874 Z" id="Shape" fill="#0667A4"></path>
                    <g id="Group" transform="translate(310.000000, 26.000000)" fill="#1A293F">
                        <path d="M40.13,7.355 C38.861,4.879 36.895,3.067 34.222,1.917 C31.549,0.767 28.103,0.192 23.88,0.192 C16.071,0.192 10.215,2.373 6.313,6.727 C2.411,11.086 0.457,18.075 0.457,27.692 C0.457,37.31 2.254,44.25 5.84,48.499 C9.426,52.753 15.51,54.877 24.092,54.877 C30.211,54.877 35.557,54.043 40.131,52.366 C41.255,52.019 41.817,51.427 41.817,50.593 C41.817,49.895 41.571,49.057 41.08,48.082 C40.869,47.524 40.448,47.244 39.815,47.244 C39.32,47.244 38.372,47.454 36.966,47.871 C33.375,48.986 29.263,49.544 24.617,49.544 C18.429,49.544 13.894,48.117 11.01,45.26 C8.127,42.403 6.647,36.998 6.576,29.054 L40.342,29.054 C41.396,29.054 42.098,28.878 42.453,28.532 C42.944,28.04 43.19,26.995 43.19,25.393 C43.19,21.139 42.997,17.689 42.611,15.042 C42.22,12.39 41.395,9.831 40.13,7.355 Z M37.07,24.031 L6.68,24.031 C6.821,18.04 8.108,13.457 10.53,10.283 C12.958,7.114 17.233,5.525 23.352,5.525 C28.839,5.525 32.513,6.833 34.379,9.445 C36.24,12.061 37.175,15.981 37.175,21.209 C37.176,22.535 37.141,23.474 37.07,24.031 Z" id="Shape"></path>
                        <path d="M73.974,1.728 C73.056,1.517 71.652,1.416 69.751,1.416 C66.234,1.416 62.596,1.973 58.834,3.088 C55.067,4.203 52.553,5.354 51.288,6.538 C49.809,8 49.071,9.953 49.071,12.393 L49.071,52.857 C49.071,54.182 49.704,54.845 50.972,54.845 L53.189,54.845 C54.453,54.845 55.085,54.182 55.085,52.857 L55.085,14.483 C55.085,13.021 55.261,11.972 55.612,11.344 C55.967,10.58 56.599,9.988 57.512,9.571 C60.466,7.894 64.443,7.06 69.434,7.06 C69.856,7.06 70.58,7.095 71.598,7.165 C72.617,7.23 73.201,7.266 73.341,7.266 C74.113,7.266 74.605,6.849 74.816,6.015 C75.027,5.247 75.132,4.238 75.132,2.982 C75.133,2.286 74.746,1.869 73.974,1.728 Z" id="Path"></path>
                        <path d="M119.537,7.32 C116.477,3.382 111.434,1.417 104.397,1.417 C96.518,1.417 89.907,2.703 84.561,5.284 C82.945,6.052 81.887,6.956 81.396,8.001 C81.044,8.909 80.87,10.406 80.87,12.5 L80.87,77.114 C80.87,78.37 81.467,78.998 82.665,78.998 L84.987,78.998 C86.251,78.998 86.883,78.37 86.883,77.114 L86.883,53.692 C89.907,55.158 94.096,55.89 99.438,55.89 C105.346,55.89 110.008,55.14 113.419,53.643 C116.833,52.142 119.467,49.302 121.333,45.119 C123.198,40.935 124.129,35.05 124.129,27.451 C124.129,17.969 122.597,11.257 119.537,7.32 Z M114.318,45.747 C111.785,48.886 106.79,50.452 99.332,50.452 C95.044,50.452 91.527,49.894 88.784,48.78 C87.515,48.222 86.883,46.931 86.883,44.913 L86.883,14.695 C86.883,12.882 87.024,11.697 87.305,11.139 C87.657,10.37 88.398,9.778 89.522,9.361 C93.53,7.759 98.173,6.956 103.45,6.956 C109.289,6.956 113.191,8.576 115.162,11.82 C117.133,15.059 118.116,20.48 118.116,28.079 C118.115,36.721 116.847,42.612 114.318,45.747 Z" id="Shape"></path>
                    </g>
                </g>
            </g>
        </g>
    </g>
</svg>
